svgs/argenta.svg

<svg xmlns="http://www.w3.org/2000/svg" viewBox="0 0 192 192"><path d="M25.894 174.35c-4.245-1.288-8.372-5.153-8.372-7.841 0-.637 12.805-11.477 28.456-24.088a18887.88 18887.88 0 0 0 49.083-39.691c11.344-9.219 21.463-17.124 22.485-17.566 1.022-.442 5.273 1.876 9.447 5.15l7.589 5.954.065 14.863.065 14.863-14.839 11.774a11668.15 11668.15 0 0 0-31.37 25.003L71.971 176l-20.756-.133c-11.416-.073-22.81-.756-25.321-1.517Zm60.219-.799c1.746-2.14 10.252-9.082 41.189-33.617l7.41-5.876v22.907l-9.393 7.582c-13.654 11.021-14.444 11.338-28.462 11.398-11.45.049-12.54-.193-10.744-2.394ZM16 130.522v-27.083l22.3-17.906 22.299-17.906h38.015l7.503 5.806 7.503 5.805-5.054 4.369c-7.081 6.121-88.344 71.394-90.664 72.825-1.493.92-1.902-4.651-1.902-25.91Zm0-46.364c0-15.561 1.183-16.541 19.905-16.497 13.827.034 14.223.13 11.09 2.71a5730.377 5730.377 0 0 1-17.121 13.934L16 95.564Zm58.493-27.2c.461-.759 8.344-7.391 17.518-14.738l16.68-13.357 33.654.417 33.655.417-17.871 14.32-17.87 14.321h-33.303c-19.111 0-32.944-.588-32.463-1.38ZM63.18 38.506c0-16.427.326-18.692 3.044-21.195 3.029-2.788 3.044-2.704 3.044 16.736 0 17.953-.247 19.672-3.044 21.195-2.964 1.613-3.044 1.177-3.044-16.736Z"/></svg>

<svg
    xmlns="http://www.w3.org/2000/svg"
    viewBox="0 0 192 192"
    id="vector">
    <g id="group">
        <path
            id="path_6"
            d="M 25.894 174.35 C 21.649 173.062 17.522 169.197 17.522 166.509 C 17.522 165.872 30.327 155.032 45.978 142.421 C 61.629 129.81 83.716 111.949 95.061 102.73 C 106.405 93.511 116.524 85.606 117.546 85.164 C 118.568 84.722 122.819 87.04 126.993 90.314 L 134.582 96.268 L 134.647 111.131 L 134.712 125.994 L 119.873 137.768 C 111.711 144.244 97.595 155.495 88.503 162.771 L 71.971 176 L 51.215 175.867 C 39.799 175.794 28.405 175.111 25.894 174.35 Z M 86.113 173.551 C 87.859 171.411 96.365 164.469 127.302 139.934 L 134.712 134.058 L 134.712 156.965 L 125.319 164.547 C 111.665 175.568 110.875 175.885 96.857 175.945 C 85.407 175.994 84.317 175.752 86.113 173.551 Z M 16 130.522 L 16 103.439 L 38.3 85.533 L 60.599 67.627 L 98.614 67.627 L 106.117 73.433 L 113.62 79.238 L 108.566 83.607 C 101.485 89.728 20.222 155.001 17.902 156.432 C 16.409 157.352 16 151.781 16 130.522 Z M 16 84.158 C 16 68.597 17.183 67.617 35.905 67.661 C 49.732 67.695 50.128 67.791 46.995 70.371 C 45.209 71.842 37.504 78.112 29.874 84.305 L 16 95.564 Z M 74.493 56.958 C 74.954 56.199 82.837 49.567 92.011 42.22 L 108.691 28.863 L 142.345 29.28 L 176 29.697 L 158.129 44.017 L 140.259 58.338 L 106.956 58.338 C 87.845 58.338 74.012 57.75 74.493 56.958 Z M 63.18 38.506 C 63.18 22.079 63.506 19.814 66.224 17.311 C 69.253 14.523 69.268 14.607 69.268 34.047 C 69.268 52 69.021 53.719 66.224 55.242 C 63.26 56.855 63.18 56.419 63.18 38.506 Z"
            fill="#000000"
            stroke-width="12"/>
    </g>
</svg>
